poi/svg/1603.svg

<?xml version="1.0" encoding="UTF-8" standalone="no"?>
<svg
   xmlns:dc="http://purl.org/dc/elements/1.1/"
   xmlns:cc="http://creativecommons.org/ns#"
   xmlns:rdf="http://www.w3.org/1999/02/22-rdf-syntax-ns#"
   xmlns:svg="http://www.w3.org/2000/svg"
   xmlns="http://www.w3.org/2000/svg"
   xmlns:sodipodi="http://sodipodi.sourceforge.net/DTD/sodipodi-0.dtd"
   xmlns:inkscape="http://www.inkscape.org/namespaces/inkscape"
   inkscape:version="1.0 (4035a4fb49, 2020-05-01)"
   sodipodi:docname="1603.svg"
   id="svg20"
   version="1.2"
   viewBox="0 0 42.519639 42.519639"
   height="14.999999mm"
   width="14.999999mm">
  <metadata
     id="metadata24">
    <rdf:RDF>
      <cc:Work
         rdf:about="">
        <dc:format>image/svg+xml</dc:format>
        <dc:type
           rdf:resource="http://purl.org/dc/dcmitype/StillImage" />
        <dc:title>Qt SVG Document</dc:title>
      </cc:Work>
    </rdf:RDF>
  </metadata>
  <sodipodi:namedview
     inkscape:current-layer="svg20"
     inkscape:window-maximized="0"
     inkscape:window-y="0"
     inkscape:window-x="0"
     inkscape:cy="28.346482"
     inkscape:cx="28.346482"
     inkscape:zoom="5.8410537"
     showgrid="false"
     id="namedview22"
     inkscape:window-height="480"
     inkscape:window-width="1034"
     inkscape:pageshadow="2"
     inkscape:pageopacity="0"
     guidetolerance="10"
     gridtolerance="10"
     objecttolerance="10"
     borderopacity="1"
     bordercolor="#666666"
     pagecolor="#ffffff" />
  <title
     id="title2">Qt SVG Document</title>
  <desc
     id="desc4">Generated with Qt</desc>
  <defs
     id="defs6" />
  <g
     transform="translate(5.25984,5.25984)"
     id="g18"
     stroke-linejoin="bevel"
     stroke-linecap="square"
     fill-rule="evenodd"
     stroke-width="1"
     stroke="#000000"
     fill="none">
    <g
       id="g10"
       font-style="normal"
       font-weight="400"
       font-size="7.8px"
       font-family="'MS Shell Dlg 2'"
       stroke="none"
       fill-opacity="1"
       fill="#53a54f">
      <path
         id="path8"
         d="M 37.2598,16 C 37.2598,27.7415 27.7415,37.2598 16,37.2598 4.25851,37.2598 -5.25984,27.7415 -5.25984,16 -5.25984,4.25851 4.25851,-5.25984 16,-5.25984 27.7415,-5.25984 37.2598,4.25851 37.2598,16"
         fill-rule="evenodd"
         vector-effect="non-scaling-stroke" />
    </g>
    <g
       id="g14"
       font-style="normal"
       font-weight="400"
       font-size="7.8px"
       font-family="'MS Shell Dlg 2'"
       transform="translate(16,12.5984)"
       stroke="none"
       fill-opacity="0.94902"
       fill="#ffffff">
      <path
         id="path12"
         d="m 11.2661,-0.152344 c 0,0.573893 -0.1645,0.976319 -0.4934,1.207274 C 10.4438,1.28589 10.1253,1.40137 9.81738,1.40137 9.49544,1.40137 9.212,1.29989 8.96704,1.09692 8.72209,0.893962 8.57161,0.624512 8.51563,0.288574 c 0,-0.153971 0.02099,-0.3009438 0.06298,-0.440918 0.042,-0.139974 0.13998,-0.279948 0.29395,-0.419922 0.22396,-0.237955 0.49341,-0.304443 0.80835,-0.199463 0.31494,0.104981 0.47239,0.311443 0.47239,0.619385 0,0.167969 -0.1015,0.265951 -0.30442,0.293946 C 9.64591,0.169596 9.54443,0.0996094 9.54443,-0.0683594 9.46045,-0.124349 9.38346,-0.11735 9.31348,-0.0473633 9.24349,0.0226237 9.2085,0.134603 9.2085,0.288574 c 0,0.139974 0.08048,0.244955 0.24145,0.314942 0.16097,0.069987 0.28345,0.10498 0.36743,0.10498 0.08399,0 0.23442,-0.055989 0.45142,-0.167969 0.217,-0.111979 0.3254,-0.342936 0.3254,-0.692871 0,-0.405924 -0.1434,-0.713867 -0.4304,-0.923826 C 9.87687,-1.28613 9.55843,-1.39111 9.2085,-1.39111 H -8.72217 c -0.34993,0 -0.66837,0.10498 -0.95532,0.31494 -0.28695,0.209959 -0.43041,0.517902 -0.43041,0.923826 0,0.349935 0.10847,0.580892 0.32543,0.692871 0.21696,0.11198 0.36743,0.167969 0.45142,0.167969 0.15397,0 0.29394,-0.034993 0.41992,-0.10498 0.12597,-0.069987 0.18896,-0.174968 0.18896,-0.314942 0.05599,-0.153971 0.05599,-0.2659503 0,-0.3359373 -0.05599,-0.0699867 -0.11198,-0.1049807 -0.16797,-0.1049807 0,0.167969 -0.12947,0.2519534 -0.38842,0.2519534 -0.25896,0 -0.38843,-0.0839844 -0.38843,-0.2519534 0,-0.307942 0.15747,-0.514404 0.47241,-0.619385 0.31494,-0.10498 0.58439,-0.038492 0.80835,0.199463 0.15397,0.139974 0.25195,0.279948 0.29394,0.419922 0.042,0.1399742 0.06299,0.286947 0.06299,0.440918 -0.05599,0.335938 -0.20646,0.605388 -0.45141,0.808346 -0.24496,0.20297 -0.5284,0.30445 -0.85034,0.30445 -0.30795,0 -0.62639,-0.11548 -0.95535,-0.34644 -0.3289,-0.230955 -0.4934,-0.633381 -0.4934,-1.207274 0,-0.629883 0.2135,-1.109296 0.6404,-1.438236 0.42692,-0.32893 0.89933,-0.4934 1.41723,-0.4934 H 9.2085 c 0.5179,0 0.9903,0.16447 1.4172,0.4934 0.427,0.32894 0.6404,0.808353 0.6404,1.438236 M -10.8638,13.873 h 22.2139 v 1.5328 H -10.8638 V 13.873 M 8.01172,2.09424 H 10.4053 V 13.3481 H 8.01172 V 2.09424 m -17.7627,0 h 2.41455 V 13.3481 H -9.75098 V 2.09424 m 4.34619,9.32226 h 11.2959 v 1.2388 H -5.40479 V 11.4165 M 12.6519,-3.55371 v 1.88965 L 0.180176,-5.61133 -12.1655,-1.66406 V -3.55371 L 0.180176,-7.62695 12.6519,-3.55371 M 3.30859,9.52686 V 3.54297 L 0.26416,8.83398 -2.82227,3.54297 V 9.52686 H -4.73291 V 0.015625 h 2.24658 L 0.26416,4.76074 3.05664,0.015625 h 2.1626 V 9.52686 H 3.30859"
         fill-rule="evenodd"
         vector-effect="none" />
    </g>
    <g
       id="g16"
       font-style="normal"
       font-weight="400"
       font-size="7.8px"
       font-family="'MS Shell Dlg 2'"
       stroke="none"
       fill-opacity="1"
       fill="#53a54f" />
  </g>
</svg>

<?xml version="1.0" encoding="UTF-8" standalone="no"?>
<svg width="11.2889mm" height="11.2889mm"
 viewBox="0 0 32 32"
 xmlns="http://www.w3.org/2000/svg" xmlns:xlink="http://www.w3.org/1999/xlink"  version="1.2" baseProfile="tiny">
<title>Qt SVG Document</title>
<desc>Generated with Qt</desc>
<defs>
</defs>
<g fill="none" stroke="black" stroke-width="1" fill-rule="evenodd" stroke-linecap="square" stroke-linejoin="bevel" >

<g fill="#53a54f" fill-opacity="1" stroke="none" transform="matrix(1,0,0,1,0,0)"
font-family="MS Shell Dlg 2" font-size="7.8" font-weight="400" font-style="normal" 
>
<path vector-effect="non-scaling-stroke" fill-rule="evenodd" d="M37.2598,16 C37.2598,27.7415 27.7415,37.2598 16,37.2598 C4.25851,37.2598 -5.25984,27.7415 -5.25984,16 C-5.25984,4.25851 4.25851,-5.25984 16,-5.25984 C27.7415,-5.25984 37.2598,4.25851 37.2598,16 "/>
</g>

<g fill="#ffffff" fill-opacity="0.94902" stroke="none" transform="matrix(1,0,0,1,16,12.5984)"
font-family="MS Shell Dlg 2" font-size="7.8" font-weight="400" font-style="normal" 
>
<path vector-effect="none" fill-rule="evenodd" d="M11.2661,-0.152344 C11.2661,0.421549 11.1016,0.823975 10.7727,1.05493 C10.4438,1.28589 10.1253,1.40137 9.81738,1.40137 C9.49544,1.40137 9.212,1.29989 8.96704,1.09692 C8.72209,0.893962 8.57161,0.624512 8.51563,0.288574 C8.51563,0.134603 8.53662,-0.0123698 8.57861,-0.152344 C8.62061,-0.292318 8.71859,-0.432292 8.87256,-0.572266 C9.09652,-0.810221 9.36597,-0.876709 9.68091,-0.771729 C9.99585,-0.666748 10.1533,-0.460286 10.1533,-0.152344 C10.1533,0.015625 10.0518,0.113607 9.84888,0.141602 C9.64591,0.169596 9.54443,0.0996094 9.54443,-0.0683594 C9.46045,-0.124349 9.38346,-0.11735 9.31348,-0.0473633 C9.24349,0.0226237 9.2085,0.134603 9.2085,0.288574 C9.2085,0.428548 9.28898,0.533529 9.44995,0.603516 C9.61092,0.673503 9.7334,0.708496 9.81738,0.708496 C9.90137,0.708496 10.0518,0.652507 10.2688,0.540527 C10.4858,0.428548 10.5942,0.197591 10.5942,-0.152344 C10.5942,-0.558268 10.4508,-0.866211 10.1638,-1.07617 C9.87687,-1.28613 9.55843,-1.39111 9.2085,-1.39111 L-8.72217,-1.39111 C-9.0721,-1.39111 -9.39054,-1.28613 -9.67749,-1.07617 C-9.96444,-0.866211 -10.1079,-0.558268 -10.1079,-0.152344 C-10.1079,0.197591 -9.99943,0.428548 -9.78247,0.540527 C-9.56551,0.652507 -9.41504,0.708496 -9.33105,0.708496 C-9.17708,0.708496 -9.03711,0.673503 -8.91113,0.603516 C-8.78516,0.533529 -8.72217,0.428548 -8.72217,0.288574 C-8.66618,0.134603 -8.66618,0.0226237 -8.72217,-0.0473633 C-8.77816,-0.11735 -8.83415,-0.152344 -8.89014,-0.152344 C-8.89014,0.015625 -9.01961,0.0996094 -9.27856,0.0996094 C-9.53752,0.0996094 -9.66699,0.015625 -9.66699,-0.152344 C-9.66699,-0.460286 -9.50952,-0.666748 -9.19458,-0.771729 C-8.87964,-0.876709 -8.61019,-0.810221 -8.38623,-0.572266 C-8.23226,-0.432292 -8.13428,-0.292318 -8.09229,-0.152344 C-8.05029,-0.0123698 -8.0293,0.134603 -8.0293,0.288574 C-8.08529,0.624512 -8.23576,0.893962 -8.48071,1.09692 C-8.72567,1.29989 -9.00911,1.40137 -9.33105,1.40137 C-9.639,1.40137 -9.95744,1.28589 -10.2864,1.05493 C-10.6153,0.823975 -10.7798,0.421549 -10.7798,-0.152344 C-10.7798,-0.782227 -10.5663,-1.26164 -10.1394,-1.59058 C-9.71248,-1.91951 -9.24007,-2.08398 -8.72217,-2.08398 L9.2085,-2.08398 C9.7264,-2.08398 10.1988,-1.91951 10.6257,-1.59058 C11.0527,-1.26164 11.2661,-0.782227 11.2661,-0.152344 M-10.8638,13.873 L11.3501,13.873 L11.3501,15.4058 L-10.8638,15.4058 L-10.8638,13.873 M8.01172,2.09424 L10.4053,2.09424 L10.4053,13.3481 L8.01172,13.3481 L8.01172,2.09424 M-9.75098,2.09424 L-7.33643,2.09424 L-7.33643,13.3481 L-9.75098,13.3481 L-9.75098,2.09424 M-5.40479,11.4165 L5.89111,11.4165 L5.89111,12.6553 L-5.40479,12.6553 L-5.40479,11.4165 M12.6519,-3.55371 L12.6519,-1.66406 L0.180176,-5.61133 L-12.1655,-1.66406 L-12.1655,-3.55371 L0.180176,-7.62695 L12.6519,-3.55371 M3.30859,9.52686 L3.30859,3.54297 L0.26416,8.83398 L-2.82227,3.54297 L-2.82227,9.52686 L-4.73291,9.52686 L-4.73291,0.015625 L-2.48633,0.015625 L0.26416,4.76074 L3.05664,0.015625 L5.21924,0.015625 L5.21924,9.52686 L3.30859,9.52686"/>
</g>

<g fill="#53a54f" fill-opacity="1" stroke="none" transform="matrix(1,0,0,1,0,0)"
font-family="MS Shell Dlg 2" font-size="7.8" font-weight="400" font-style="normal" 
>
</g>
</g>
</svg>
